icons/solid/at-symbol.svg

<svg width="24" height="24" viewBox="0 0 24 24" fill="none" xmlns="http://www.w3.org/2000/svg">
<path fill-rule="evenodd" clip-rule="evenodd" d="M12 23C18.0751 23 23 18.0751 23 12C23 5.92487 18.0751 1 12 1C5.92487 1 1 5.92487 1 12C1 18.0751 5.92487 23 12 23ZM4.78847 6.4157C6.17386 4.49153 8.47408 3 12 3C15.5259 3 17.8261 4.49153 19.2115 6.4157C20.5602 8.28887 21 10.5066 21 12C21 12.631 20.8482 13.6034 20.2567 14.4485C19.6248 15.3513 18.5633 16 17 16C15.9635 16 15.2601 15.4688 14.8136 14.8432C14.0909 15.5584 13.097 16 12 16C9.79086 16 8 14.2091 8 12C8 9.79086 9.79086 8 12 8C14.2091 8 16 9.79086 16 12C16 12.4026 16.0857 12.9927 16.3015 13.4423C16.5062 13.8686 16.7253 14 17 14C17.9367 14 18.3752 13.6487 18.6183 13.3015C18.9018 12.8966 19 12.369 19 12C19 10.8267 18.6398 9.04447 17.5885 7.5843C16.5739 6.17513 14.8741 5 12 5C9.12592 5 7.42614 6.17513 6.41153 7.5843C5.36022 9.04447 5 10.8267 5 12C5 13.1733 5.36022 14.9555 6.41153 16.4157C7.42614 17.8249 9.12592 19 12 19C13.9806 19 15.385 18.4418 16.388 17.6656C16.8247 17.3276 17.4528 17.4076 17.7908 17.8444C18.1289 18.2812 18.0488 18.9093 17.612 19.2473C16.229 20.3176 14.3846 21 12 21C8.47408 21 6.17386 19.5085 4.78847 17.5843C3.43978 15.7111 3 13.4934 3 12C3 10.5066 3.43978 8.28887 4.78847 6.4157ZM12 10C13.1046 10 14 10.8954 14 12C14 13.1046 13.1046 14 12 14C10.8954 14 10 13.1046 10 12C10 10.8954 10.8954 10 12 10Z" fill="currentColor"/>
</svg>

<svg width="24" height="24" fill="none" xmlns="http://www.w3.org/2000/svg"><path fill-rule="evenodd" clip-rule="evenodd" d="M12 23c6.075 0 11-4.925 11-11S18.075 1 12 1 1 5.925 1 12s4.925 11 11 11zM4.788 6.416C6.174 4.492 8.474 3 12 3s5.826 1.492 7.212 3.416C20.56 8.289 21 10.506 21 12c0 .631-.152 1.603-.743 2.448C19.625 15.351 18.563 16 17 16c-1.037 0-1.74-.531-2.186-1.157A4 4 0 1116 12c0 .403.086.993.302 1.442.204.427.423.558.698.558.937 0 1.375-.351 1.618-.698.284-.405.382-.933.382-1.302 0-1.173-.36-2.956-1.412-4.416C16.575 6.175 14.874 5 12 5S7.426 6.175 6.412 7.584C5.36 9.044 5 10.827 5 12c0 1.173.36 2.956 1.412 4.416C7.426 17.825 9.126 19 12 19c1.98 0 3.385-.558 4.388-1.334a1 1 0 111.224 1.581C16.229 20.317 14.385 21 12 21c-3.526 0-5.826-1.491-7.212-3.416C3.44 15.711 3 13.494 3 12c0-1.493.44-3.711 1.788-5.584zM12 10a2 2 0 110 4 2 2 0 010-4z" fill="currentColor"/></svg>
